X:1
T:Title
%%score { 1 | 2 }
L:1/8
M:6/8
K:C
V:1 treble nm="Grand Piano"
V:2 bass 
V:1
 z3 z2[Q:1/4=81] [EG] | [EG][Ge][Fd] [Ec][GB][FA] | [EG]3 [CE]2 [EG] | GA[FB] [Ec][FB][Gc] | %4
 [Fd]3- [Fd]2 [FG] | [EG][Ge][Fd] [Ec][GB][FA] | [EG]3 [Gc]2 [Gd] | [Ge][Gd][Gc] dc[DB] | %8
[M:5/8] [Ec]-[Ec]- [Ec]3 |[M:1/8] [Ec] |[M:3/4] BB c[Fd] [Ec][DB] | [Ec]3 [Ge]2 [Ge] | %12
 [Gd][Dc] [DB][^FA] [FB][FA] | G4- GG | [EG][Ge] [Fd][Ec] [GB][FA] | [EG]3 [Gc]2 [Gd] | %16
 [Ge][Gd] [Gc]d cB |[M:5/8] [Ec]-[Ec]- [Ec]3 |] %18
V:2
 z3 z2 [C,C] | [C,C][C,C][C,C] [C,C][C,C][C,C] | [C,C]3 [C,G,]2 [C,C] | %3
 [E,C][F,CF][D,G,] [C,G,][D,G,][E,C] | [G,B,]3- [G,B,]2 [G,B,] | [C,C][C,C][C,C] [C,C][C,C][C,C] | %6
 [C,C]3 [E,C]2 [G,B,] | [C,C][D,B,][E,C] [F,A,F][G,E][G,,G,] |[M:5/8] [C,G,]-[C,G,]- [C,G,]3 | %9
[M:1/8] [C,G,] |[M:3/4] [G,D][G,D] [G,E][G,,G,] [G,,G,][G,,G,] | [C,G,]3 [C,C]2 [C,C] | %12
 [D,B,][D,A,] [D,G,][D,C] [D,D][D,C] | [G,B,]4- [G,B,][G,B,F] | [C,C][C,C] [C,C][C,C] [C,C][C,C] | %15
 [C,C]3 [E,C]2 [G,B,] | [C,C][D,B,] [E,C][F,A,F] [G,E][G,D] |[M:5/8] [C,G,]-[C,G,]- [C,G,]3 |] %18

